X:1
T:Sleepers Awake (Wachet auf)
C:Johann Sebastian Bach
M:4/4
L:1/4
Q:1/4=72
K:G
D | G2 B c | d e d c | B A G2 | A B c d | e2 d c | B A G2 | G A B d | g f e d | e2 d2 | d e d c | B c d B | G4 |]
